X:44
T:Leitrim Fancy, The
R:jig
D:Bothy Band: Out of the Wind, Into the Sun
Z:Julie Ross
M:6/8
K:Edor
GBG FAF|E2B BAF|GBG FAF|DFA AFD|
GAG FGF|E2B BAF|G2B dBG|ABG FED:|
|:GAB dBd|edB dBA|GFG dBG|A2G FED|
GAB d2d|edB def|gfe dBG|A2G FED:|
